X: 3
T:L\'evis Beaulieu $1(R-144)
R:reel
Z:Transcribed to abc by Debbie Knight
M:C|
K:A
ed|"A"c2AA AcBA | "D"FBAF "A"E3A |"Bm"BABc d2B2 |"E"AAAc efed | 
"A"c2AA AcBA | "D"FBAF "A"E3A |"Bm"BABc "E"dBed |1 "A"c2A2 A2 :|[2 "A"c2A2 A2ce |]
|:"A"a2ab afed |cAce a2ef | "G"=g2ga ged=c   |B=GBd =g2e^g|
"A"a2ab afed |cAce a2ee | "Bm"efec "E"dBed |1 "A"c2A2 A2ce  :|   [2 "A"c2A2 A4|]
%%scale .5
%%text 02/05/01 

#include "LeftHeader.h"
%%footer 02/07/01 For use only by Roaring Jelly members
% ---------- set 62 ----------
% Scotty O'Neill (D) / Scollay's Reel (Em) / Round the Horn (G)
%%text Set 62
%%vskip -1cm
